X:1
T:Title
%%score { 1 | ( 2 3 ) }
L:1/8
Q:1/4=100
M:4/4
K:Eb
V:1 treble nm="Grand Piano"
V:2 bass 
V:3 bass 
V:1
 [DF]>[_D=E] [=DF]>[_EG] [DB]2 [Dc]2 | G6 E>E | c>=B c>[E=Ac] [F_Bd]2 [EAc]2 | [DB]6 [B,AB]2 | %4
w: Robert~Harkness * * * * *||||
 [Ge]2 .[CAc]2 [EGB]3 G | A>G A>B c2 F2 | B>G c>B G2 [DF]2 |[M:3/4] E6 |] %8
w: ||||
V:2
 [B,,B,]>[B,,B,] [B,,B,]>[B,,B,] [B,,F,]2 [B,,A,]2 | [E,B,E]6 [E,G,]>[E,G,] | %2
 [A,E]>[A,DA] [A,EA]>[K:bass]F, F,2 F,2 | B,6 B,,2 | [E,B,]2 z E E,3 [E,B,E] | %5
 [A,CE]>[A,B,E] [A,CE]>[G,B,E] [A,E]2 [A,B,D]2 | [G,B,E]>[E,B,E] [A,E]>[G,B,E] [B,E]2 [B,,A,]2 | %7
[M:3/4] [E,G,]6 |] %8
V:3
 x8 | x8 | x7/2[K:bass] x9/2 | x8 | z2 E,2 z4 | x8 | x8 |[M:3/4] x6 |] %8

